svgs/sharp-solid/shelves.svg

<svg xmlns="http://www.w3.org/2000/svg" viewBox="0 0 640 512"><!--! Font Awesome Pro 6.6.0 by @fontawesome - https://fontawesome.com License - https://fontawesome.com/license (Commercial License) Copyright 2024 Fonticons, Inc. --><path d="M64 0l0 32 0 128 512 0 0-128 0-32 64 0 0 32 0 128 0 32 0 32 0 192 0 32 0 32 0 32-64 0 0-32L64 480l0 32L0 512l0-32 0-32 0-32L0 224l0-32 0-32L0 32 0 0 64 0zm0 416l512 0 0-192L64 224l0 192zM352 0L480 0l0 128-128 0L352 0zM224 256l0 128L96 384l0-128 128 0zm160 0l0 128-128 0 0-128 128 0z"/></svg>

<svg xmlns="http://www.w3.org/2000/svg" viewBox="0 0 640 512"><!--! Font Awesome Pro 6.4.2 by @fontawesome - https://fontawesome.com License - https://fontawesome.com/license (Commercial License) Copyright 2023 Fonticons, Inc. --><path d="M64 0V32 160H576V32 0h64V32 160v32 32V416v32 32 32H576V480H64v32H0V480 448 416 224 192 160 32 0H64zm0 416H576V224H64V416zM352 0H480V128H352V0zM224 256V384H96V256H224zm160 0V384H256V256H384z"/></svg>
